X: 15019
T: George I. Taylor
R: strathspey
M: 4/4
K: Eminor
G<BG>F E>FG<E|D>dA>F D>FA<F|G>BG<E A>^GA<c|(3BAG (3AGF G<E E2|
G<BG>F E>FG<E|D>d^c<e d>AF<D|G>BG<E A>^GA<c|(3BAG (3AGF G<EE>d||
d<eB>d d<e (3gfe|d<fA>f d>ef<d|d<eB>d d<e (3gfe|d>A (3BAF G<EE2|
e2 E>G (3Bee (3efg|f2 D>F (3Add (3def|G2 (3GAB A<F (3FGA|(3GFE (3FED E4||

